src/svg/unlock.svg

<?xml version="1.0" encoding="UTF-8"?>
<svg width="12px" height="16px" viewBox="0 0 12 16" version="1.1" xmlns="http://www.w3.org/2000/svg" xmlns:xlink="http://www.w3.org/1999/xlink">
    <!-- Generator: Sketch 50.2 (55047) - http://www.bohemiancoding.com/sketch -->
    <title>unlocked</title>
    <desc>Created with Sketch.</desc>
    <defs></defs>
    <g id="unlocked" stroke="none" stroke-width="1" fill="none" fill-rule="evenodd">
        <path d="M2.5,7 L2.5,3.5 C2.5,1.56700338 4.06700338,3.88578059e-16 6,0 C7.93299662,-3.23815049e-16 9.5,1.56700338 9.5,3.5 L9.5,4 L8.5,4 L8.5,3.5 C8.5,2.11928813 7.38071187,1 6,1 C4.61928813,1 3.5,2.11928813 3.5,3.5 L3.5,7 L10.5,7 C11.3284271,7 12,7.67157288 12,8.5 L12,14.5 C12,15.3284271 11.3284271,16 10.5,16 L1.5,16 C0.671572875,16 0,15.3284271 0,14.5 L0,8.5 C0,7.67157288 0.671572875,7 1.5,7 L2.5,7 Z M1.5,8 C1.22385763,8 1,8.22385763 1,8.5 L1,14.5 C1,14.7761424 1.22385763,15 1.5,15 L10.5,15 C10.7761424,15 11,14.7761424 11,14.5 L11,8.5 C11,8.22385763 10.7761424,8 10.5,8 L1.5,8 Z" id="Combined-Shape" fill="#000000" fill-rule="nonzero"></path>
    </g>
</svg>

<svg width="12" height="16" xmlns="http://www.w3.org/2000/svg"><path d="M2.5 7V3.5a3.5 3.5 0 0 1 7 0V4h-1v-.5a2.5 2.5 0 0 0-5 0V7h7A1.5 1.5 0 0 1 12 8.5v6a1.5 1.5 0 0 1-1.5 1.5h-9A1.5 1.5 0 0 1 0 14.5v-6A1.5 1.5 0 0 1 1.5 7h1zM1 8v7h10V8H1z" fill="#000" fill-rule="nonzero"/></svg>
